X:245
T: Der Wilmen und der Esel (3-48), S. 140
N: P1020
O: Lothringen
S: PINCK, Louis: Verklingende Weisen, Bd3, Metz 1933]
R: Berufslied]
M: 4/4
L: 1/8
K: F
F2 | F2F2F2A2 | G2E2F2
F2 | A2G2A2c2 | BBGGA2
F2 | A2G2A2c2 | B4A2
A2 | G3GG2B2 | A2F2G2
A2 | c2A2A2F2 | G4F2

